common/src/main/resources/icons/images/ThumbnailBlank.svg

<svg xmlns="http://www.w3.org/2000/svg" width="75" height="82" fill="#4DB6AC" viewBox="0 0 24 24"><path d="M13 9h5.5L13 3.5zM6 2h8l6 6v12a2 2 0 0 1-2 2H6a2 2 0 0 1-2-2V4c0-1.11.89-2 2-2m.12 13.5 3.74 3.74 1.42-1.41-2.33-2.33 2.33-2.33-1.42-1.41zm11.16 0-3.74-3.74-1.42 1.41 2.33 2.33-2.33 2.33 1.42 1.41z"/></svg>

<!--
  - The MIT License (MIT)
  -
  - Copyright (c) 2015-2022 Elior "Mallowigi" Boukhobza
  -
  - Permission is hereby granted, free of charge, to any person obtaining a copy
  - of this software and associated documentation files (the "Software"), to deal
  - in the Software without restriction, including without limitation the rights
  - to use, copy, modify, merge, publish, distribute, sublicense, and/or sell
  - copies of the Software, and to permit persons to whom the Software is
  - furnished to do so, subject to the following conditions:
  -
  - The above copyright notice and this permission notice shall be included in all
  - copies or substantial portions of the Software.
  -
  - THE SOFTWARE IS PROVIDED "AS IS", WITHOUT WARRANTY OF ANY KIND, EXPRESS OR
  - IMPLIED, INCLUDING BUT NOT LIMITED TO THE WARRANTIES OF MERCHANTABILITY,
  - FITNESS FOR A PARTICULAR PURPOSE AND NONINFRINGEMENT. IN NO EVENT SHALL THE
  - AUTHORS OR COPYRIGHT HOLDERS BE LIABLE FOR ANY CLAIM, DAMAGES OR OTHER
  - LIABILITY, WHETHER IN AN ACTION OF CONTRACT, TORT OR OTHERWISE, ARISING FROM,
  - OUT OF OR IN CONNECTION WITH THE SOFTWARE OR THE USE OR OTHER DEALINGS IN THE
  - SOFTWARE.
  -
  -
  -->


<svg xmlns="http://www.w3.org/2000/svg" version="1.1" width="75px" height="82px" viewBox="0 0 24 24"
     fill="#4DB6AC">
    <path
            d="M13,9H18.5L13,3.5V9M6,2H14L20,8V20A2,2 0 0,1 18,22H6C4.89,22 4,21.1 4,20V4C4,2.89 4.89,2 6,2M6.12,15.5L9.86,19.24L11.28,17.83L8.95,15.5L11.28,13.17L9.86,11.76L6.12,15.5M17.28,15.5L13.54,11.76L12.12,13.17L14.45,15.5L12.12,17.83L13.54,19.24L17.28,15.5Z" />
</svg>
